icons/mist-day.svg

<svg width="72" height="58" viewBox="0 0 72 58" fill="none" xmlns="http://www.w3.org/2000/svg">
<path d="M0 48.5341C0 49.088 0.196118 49.5698 0.61287 49.9552C1.02962 50.3405 1.54443 50.5332 2.1573 50.5332H48.0245C48.6129 50.5332 49.1032 50.3405 49.5199 49.9552C49.9367 49.5698 50.1328 49.1121 50.1328 48.5341C50.1328 47.956 49.9367 47.4743 49.5199 47.0889C49.1032 46.6794 48.6129 46.4867 48.0245 46.4867H2.1573C1.54443 46.4867 1.02962 46.6794 0.61287 47.0889C0.196118 47.4983 0 47.956 0 48.5341ZM6.42288 40.9709C6.42288 41.5249 6.619 42.0066 7.03575 42.3679C7.4525 42.8015 7.9428 43.0183 8.50664 43.0183H54.3984C54.9622 43.0183 55.4525 42.8256 55.8447 42.4161C56.237 42.0066 56.4331 41.5249 56.4331 40.9709C56.4331 40.4169 56.237 39.9352 55.8693 39.5498C55.477 39.1645 55.0112 38.9718 54.4229 38.9718H8.53115C7.9428 38.9718 7.4525 39.1645 7.06027 39.5498C6.64351 39.9593 6.42288 40.4169 6.42288 40.9709ZM6.74157 35.1902C6.74157 35.407 6.86415 35.5033 7.13381 35.5033H10.6394C10.811 35.5033 10.9826 35.3829 11.1542 35.1179C11.7426 33.8655 12.6006 32.8538 13.7528 32.059C14.905 31.2641 16.1798 30.8065 17.5771 30.7101L18.9009 30.5415C19.1706 30.5415 19.3177 30.397 19.3177 30.108L19.4893 28.8796C19.7589 26.2782 20.8621 24.1105 22.8478 22.3522C24.8335 20.6179 27.1624 19.7267 29.859 19.7267C32.5066 19.7267 34.8355 20.5939 36.8212 22.3281C38.8069 24.0623 39.9346 26.206 40.2043 28.7832L40.3759 30.1802C40.3759 30.4452 40.523 30.5897 40.8417 30.5897H44.7886C46.3575 30.5897 47.8039 30.9992 49.1032 31.8422C50.4025 32.6611 51.3585 33.7691 51.9959 35.142C52.1675 35.407 52.3146 35.5274 52.4862 35.5274H56.0163C56.335 35.5274 56.4576 35.3588 56.335 34.9734L55.8447 33.6487C57.7079 31.3846 58.6149 28.7351 58.6149 25.6761C58.6149 23.9659 58.2717 22.3522 57.6098 20.7865C56.9479 19.2209 56.0409 17.8962 54.8887 16.7641C53.761 15.6321 52.3882 14.7409 50.7947 14.0664C49.2012 13.392 47.5587 13.103 45.7937 13.103C42.0184 13.103 38.8805 14.4518 36.429 17.1495C34.3453 16.1379 32.1634 15.6321 29.859 15.6321C26.427 15.6321 23.3626 16.6919 20.6905 18.8115C18.0184 20.9311 16.3023 23.6287 15.5424 26.9286C11.1788 28.0606 8.23698 30.7342 6.76609 34.9975C6.74157 35.0216 6.74157 35.0939 6.74157 35.1902ZM10.713 55.9286C10.713 56.5066 10.9336 56.9884 11.3749 57.3738C11.7671 57.7832 12.2329 58 12.8212 58H58.762C59.3258 58 59.8161 57.8073 60.2329 57.3978C60.6496 56.9884 60.8458 56.5066 60.8458 55.9286C60.8458 55.3746 60.6496 54.9169 60.2329 54.5316C59.8161 54.1703 59.3258 53.9776 58.762 53.9776H12.8212C12.2329 53.9776 11.7426 54.1703 11.3258 54.5316C10.9091 54.9169 10.713 55.3746 10.713 55.9286ZM26.8192 9.03239C26.8192 9.61047 27.0153 10.0681 27.383 10.4535L28.9765 11.995C29.3933 12.4286 29.859 12.6453 30.3984 12.6453C30.9377 12.6453 31.428 12.4527 31.8693 12.0432C32.286 11.6337 32.5066 11.152 32.5066 10.5739C32.5066 9.99585 32.3105 9.49003 31.8938 9.05648L30.3248 7.58721C29.9326 7.17774 29.4423 6.96096 28.8539 6.96096C28.2656 6.96096 27.7753 7.15366 27.383 7.56312C27.0153 7.94851 26.8192 8.45432 26.8192 9.03239ZM39.8611 19.5822C41.5036 17.9444 43.4893 17.1495 45.8182 17.1495C48.2206 17.1495 50.2799 17.9925 51.9714 19.6545C53.6629 21.3164 54.5209 23.3397 54.5209 25.6761C54.5209 27.2417 54.1287 28.6869 53.3197 30.0116C50.9908 27.7234 48.1471 26.5914 44.8131 26.5914H43.9796C43.2686 23.7492 41.8958 21.4128 39.8611 19.5822ZM43.7835 6.98505C43.7835 7.53904 43.9796 8.02076 44.3718 8.40615C44.764 8.79153 45.2298 8.98422 45.8182 8.98422C46.4311 8.98422 46.9459 8.79153 47.3626 8.40615C47.7794 8.02076 47.9755 7.56312 47.9755 6.98505V2.04734C47.9755 1.49336 47.7549 1.01163 47.3381 0.602159C46.8968 0.192691 46.382 0 45.7937 0C45.2298 0 44.7395 0.192691 44.3473 0.602159C43.9551 1.01163 43.7589 1.49336 43.7589 2.04734V6.98505H43.7835ZM57.2421 12.4527C57.2421 12.9826 57.4382 13.4884 57.8304 13.8978C58.7375 14.765 59.7426 14.765 60.8458 13.8978L64.3514 10.4535C64.7436 10.0199 64.9397 9.51412 64.9397 8.91196C64.9397 8.35797 64.7436 7.87625 64.3514 7.49086C63.9591 7.10548 63.4688 6.91279 62.905 6.91279C62.3166 6.91279 61.8264 7.10548 61.4341 7.49086L57.855 11.0316C57.4382 11.4651 57.2421 11.9468 57.2421 12.4527ZM59.2278 40.8746C59.2278 41.4527 59.4484 41.9344 59.8652 42.3198L61.4341 43.8854C61.8264 44.2708 62.3166 44.4635 62.856 44.4635C63.3708 44.4635 63.8611 44.2708 64.3514 43.8854C64.7436 43.4759 64.9397 42.946 64.9397 42.3439C64.9397 41.814 64.7436 41.3563 64.3514 40.995L62.7579 39.4053C62.3167 39.0199 61.8264 38.8272 61.287 38.8272C60.6987 38.8272 60.2084 39.0199 59.8161 39.4294C59.4239 39.8148 59.2278 40.2965 59.2278 40.8746ZM62.856 25.6761C62.856 26.2542 63.0766 26.7359 63.4934 27.1213C63.8611 27.5307 64.3514 27.7234 64.9397 27.7234H69.9653C70.5291 27.7234 71.0194 27.5307 71.4116 27.1213C71.8039 26.7118 72 26.2301 72 25.6761C72 25.098 71.8039 24.6163 71.4116 24.2309C71.0194 23.8455 70.5536 23.6528 69.9653 23.6528H64.9397C64.3514 23.6528 63.8611 23.8455 63.4688 24.255C63.0521 24.6404 62.856 25.1221 62.856 25.6761Z" fill="#0F172A"/>
</svg>

<?xml version="1.0" encoding="UTF-8"?><svg id="Layer_2" xmlns="http://www.w3.org/2000/svg" viewBox="0 0 72 58"><defs><style>.cls-1{fill:#394152;}</style></defs><g id="Layer_1-2"><path id="mist-day" class="cls-1" d="M0,48.53c0,.55,.2,1.04,.61,1.42,.42,.39,.93,.58,1.54,.58H48.02c.59,0,1.08-.19,1.5-.58,.42-.39,.61-.84,.61-1.42s-.2-1.06-.61-1.45c-.42-.41-.91-.6-1.5-.6H2.16c-.61,0-1.13,.19-1.54,.6-.42,.41-.61,.87-.61,1.45Zm6.42-7.56c0,.55,.2,1.04,.61,1.4,.42,.43,.91,.65,1.47,.65H54.4c.56,0,1.05-.19,1.45-.6,.39-.41,.59-.89,.59-1.45s-.2-1.04-.56-1.42c-.39-.39-.86-.58-1.45-.58H8.53c-.59,0-1.08,.19-1.47,.58-.42,.41-.64,.87-.64,1.42Zm.32-5.78c0,.22,.12,.31,.39,.31h3.51c.17,0,.34-.12,.51-.39,.59-1.25,1.45-2.26,2.6-3.06,1.15-.79,2.43-1.25,3.82-1.35l1.32-.17c.27,0,.42-.14,.42-.43l.17-1.23c.27-2.6,1.37-4.77,3.36-6.53,1.99-1.73,4.31-2.63,7.01-2.63s4.98,.87,6.96,2.6c1.99,1.73,3.11,3.88,3.38,6.46l.17,1.4c0,.26,.15,.41,.47,.41h3.95c1.57,0,3.02,.41,4.31,1.25,1.3,.82,2.26,1.93,2.89,3.3,.17,.27,.32,.39,.49,.39h3.53c.32,0,.44-.17,.32-.55l-.49-1.32c1.86-2.26,2.77-4.91,2.77-7.97,0-1.71-.34-3.32-1.01-4.89-.66-1.57-1.57-2.89-2.72-4.02-1.13-1.13-2.5-2.02-4.09-2.7-1.59-.67-3.24-.96-5-.96-3.78,0-6.91,1.35-9.36,4.05-2.08-1.01-4.27-1.52-6.57-1.52-3.43,0-6.5,1.06-9.17,3.18s-4.39,4.82-5.15,8.12c-4.36,1.13-7.31,3.81-8.78,8.07-.02,.02-.02,.1-.02,.19Zm3.97,20.74c0,.58,.22,1.06,.66,1.45,.39,.41,.86,.63,1.45,.63H58.76c.56,0,1.05-.19,1.47-.6,.42-.41,.61-.89,.61-1.47s-.2-1.01-.61-1.4c-.42-.36-.91-.55-1.47-.55H12.82c-.59,0-1.08,.19-1.5,.55-.42,.39-.61,.84-.61,1.4ZM26.82,9.03c0,.58,.2,1.04,.56,1.42l1.59,1.54c.42,.43,.88,.65,1.42,.65s1.03-.19,1.47-.6c.42-.41,.64-.89,.64-1.47s-.2-1.08-.61-1.52l-1.57-1.47c-.39-.41-.88-.63-1.47-.63s-1.08,.19-1.47,.6c-.37,.39-.56,.89-.56,1.47Zm13.04,10.55c1.64-1.64,3.63-2.43,5.96-2.43s4.46,.84,6.15,2.5c1.69,1.66,2.55,3.69,2.55,6.02,0,1.57-.39,3.01-1.2,4.34-2.33-2.29-5.17-3.42-8.51-3.42h-.83c-.71-2.84-2.08-5.18-4.12-7.01Zm3.92-12.6c0,.55,.2,1.04,.59,1.42,.39,.39,.86,.58,1.45,.58s1.13-.19,1.54-.58c.42-.39,.61-.84,.61-1.42V2.05c0-.55-.22-1.04-.64-1.45-.44-.41-.96-.6-1.54-.6s-1.05,.19-1.45,.6c-.39,.41-.59,.89-.59,1.45V6.99h.02Zm13.46,5.47c0,.53,.2,1.04,.59,1.45,.91,.87,1.91,.87,3.02,0l3.51-3.44c.39-.43,.59-.94,.59-1.54,0-.55-.2-1.04-.59-1.42-.39-.39-.88-.58-1.45-.58s-1.08,.19-1.47,.58l-3.58,3.54c-.42,.43-.61,.92-.61,1.42Zm1.99,28.42c0,.58,.22,1.06,.64,1.45l1.57,1.57c.39,.39,.88,.58,1.42,.58s1.01-.19,1.5-.58c.39-.41,.59-.94,.59-1.54,0-.53-.2-.99-.59-1.35l-1.59-1.59c-.44-.39-.93-.58-1.47-.58-.59,0-1.08,.19-1.47,.6-.39,.39-.59,.87-.59,1.45Zm3.63-15.2c0,.58,.22,1.06,.64,1.45,.37,.41,.86,.6,1.45,.6h5.03c.56,0,1.05-.19,1.45-.6,.39-.41,.59-.89,.59-1.45s-.2-1.06-.59-1.45c-.39-.39-.86-.58-1.45-.58h-5.03c-.59,0-1.08,.19-1.47,.6-.42,.39-.61,.87-.61,1.42Z"/></g></svg>
